X: 39708
T: Terry Bingham's Favourite
R: jig
M: 6/8
K: Gmajor
B3 BAG|BdB BAG|ABA ABd|egf edB|
BdB BAG|edc d2e|dcB cBA|G3 G3:|
g2b agf|g2e edB|d3 edB|ABA ABd|
g2b agf|g2e edB|dcB cBA|GAG GBd:|

